src/svgs/atm-yen.svg

<svg xmlns="http://www.w3.org/2000/svg" viewBox="0 0 24 24" width="512" height="512" aria-labelledby="auatm-yen-desc auatm-yen-title"><title id="auatm-yen-title">ATM Yen Icon</title><desc id="auatm-yen-desc">A picture showing a screen with the Japanese Yen symbol and a keypad.</desc><path d="M19.778 3H4.222A2.12 2.12 0 002 5v14a2.12 2.12 0 002.222 2h15.556A2.12 2.12 0 0022 19V5a2.12 2.12 0 00-2.222-2zM7 5h10v10H7zM4 5h2v2H4zm0 4h2v2H4zm0 6v-2h2v2zm14 4H6v-2h12zm2-4h-2v-2h2zm0-4h-2V9h2zm0-4h-2V5h2zm-5.371 3.635v.885h-2.02v.554h2.02v.885h-2.02v.97h-1.2v-.97H9.388v-.885h2.02v-.554h-2.02v-.885h2.031v-.141L8.9 6h1.356l1.76 3.335L13.8 6h1.3l-2.5 4.493v.142z"/></svg>

<svg xmlns="http://www.w3.org/2000/svg" viewBox="0 0 24 24"><path d="M19.778,3H4.222A2.12,2.12,0,0,0,2,5V19a2.12,2.12,0,0,0,2.222,2H19.778A2.12,2.12,0,0,0,22,19V5A2.12,2.12,0,0,0,19.778,3ZM7,5H17V15H7ZM4,5H6V7H4ZM4,9H6v2H4Zm0,6V13H6v2Zm14,4H6V17H18Zm2-4H18V13h2Zm0-4H18V9h2Zm0-4H18V5h2Zm-5.371,3.635v.885h-2.02v.554h2.02v.885h-2.02v.97h-1.2v-.97H9.388v-.885h2.02V11.52H9.388v-.885h2.031v-.141L8.9,6h1.356l1.76,3.335L13.8,6H15.1l-2.5,4.493v.142Z"/></svg>
